X:91
T:Swallowtail, The
C:Traditional
R:jig
K:E
M:6/8
L:1/8
|: GEE BEE| GEE BAG| FDD ADD| dcd AGF|
! GEE BEE| GEG B2c| dcd AGF| GEE E3:| ! |:
Bcd e2f| e2f edB| Bcd e2f| edB d3|
! Bcd e2f| e2f edB| dcd AGF| GEE E3:|
%%footer JamBuddy 2025 - No rights reserved, public domain

